X:46
T:Planxty Linda Fitzpatrick
R:planxty
C: 1981, 2010 L.E. McCullough 
M:4/4
L:1/8
K:D
|:Addc d2cB|A2AG FGAF|B2BG A2Ad|(3Bcd gf edcB|
Addc d2cB|ABAG FGAF|~B3G AdFd|1 Eedc d4:|2 Eedc d2de|]
|:fAgf eAde|fAgf egfe|dBBA B2ef|edcB ~A3F|
~G3F G~B3|~A3B d~f3|gfed cdec|1 dAFA D2de:|2 dAFA D4|]
 

